Sources/FrostedUI/Resources/Icons.xcassets/tShirtFilled20.imageset/t-shirt-filled-20.svg

<svg width="20" height="20" viewBox="0 0 20 20" fill="none" xmlns="http://www.w3.org/2000/svg" data-fui-icon="true">
  <path
    d="M6.94849 1.53491C7.1449 1.4722 7.36093 1.49363 7.54321 1.59546C7.75065 1.71159 7.89106 1.91926 7.92114 2.15503V2.15405C7.92132 2.15523 7.92179 2.15698 7.92212 2.15894C7.92355 2.16789 7.92633 2.18468 7.93091 2.20776C7.94023 2.25468 7.95624 2.32772 7.98267 2.41675C8.03632 2.59744 8.12765 2.83276 8.27466 3.06226C8.55109 3.49364 9.03472 3.93335 9.99146 3.93335C10.9477 3.93314 11.4309 3.49351 11.7073 3.06226C11.8542 2.83285 11.9456 2.59737 11.9993 2.41675C12.0257 2.32779 12.0417 2.25465 12.051 2.20776C12.0556 2.18472 12.0594 2.16788 12.0608 2.15894C12.0609 2.15755 12.0606 2.15601 12.0608 2.15503C12.0909 1.91929 12.2313 1.71159 12.4387 1.59546C12.6468 1.4792 12.8985 1.46853 13.1155 1.56714L19.1477 4.30835C19.8968 4.64891 20.2124 5.54375 19.843 6.27905L18.5276 8.89819C18.2075 9.53483 17.4714 9.84431 16.7922 9.62866L16.5002 9.53491V17.1248C16.5002 17.8841 15.8845 18.4996 15.1252 18.4998H4.87134C4.11209 18.4996 3.49634 17.884 3.49634 17.1248V9.53589L3.20825 9.62769C2.52889 9.84388 1.79307 9.53421 1.4729 8.89722L0.156494 6.27905C-0.212757 5.54427 0.102635 4.64951 0.85083 4.30835L6.86646 1.56714L6.94849 1.53491Z"
    fill="currentColor"
  />
</svg>

<svg xmlns="http://www.w3.org/2000/svg" width="20" height="20" fill="none" data-fui-icon="true" viewBox="0 0 20 20"><path fill="currentColor" d="M6.948 1.535a.752.752 0 0 1 .973.62v-.001l.001.005.009.049c.01.047.025.12.052.209.053.18.145.416.292.645.276.432.76.871 1.716.871.957 0 1.44-.44 1.716-.87a2.6 2.6 0 0 0 .344-.855l.01-.05v-.003a.75.75 0 0 1 1.055-.588l6.032 2.741a1.45 1.45 0 0 1 .695 1.971l-1.315 2.62a1.45 1.45 0 0 1-1.736.73l-.292-.094v7.59c0 .76-.616 1.375-1.375 1.375H4.871c-.759 0-1.375-.616-1.375-1.375v-7.59l-.288.093a1.45 1.45 0 0 1-1.735-.73L.156 6.278a1.45 1.45 0 0 1 .695-1.97l6.015-2.742z"/></svg>
